Numix-GalliumOS/64/emblems/emblem-insync-error.svg

<?xml version="1.0" encoding="UTF-8" standalone="no"?>
<svg
   xmlns:dc="http://purl.org/dc/elements/1.1/"
   xmlns:cc="http://creativecommons.org/ns#"
   xmlns:rdf="http://www.w3.org/1999/02/22-rdf-syntax-ns#"
   xmlns:svg="http://www.w3.org/2000/svg"
   xmlns="http://www.w3.org/2000/svg"
   xmlns:sodipodi="http://sodipodi.sourceforge.net/DTD/sodipodi-0.dtd"
   xmlns:inkscape="http://www.inkscape.org/namespaces/inkscape"
   width="64"
   height="64"
   viewBox="0 0 64 64"
   id="svg2"
   version="1.1"
   inkscape:version="0.91 r"
   sodipodi:docname="emblem-insync-error.svg">
  <metadata
     id="metadata12">
    <rdf:RDF>
      <cc:Work
         rdf:about="">
        <dc:format>image/svg+xml</dc:format>
        <dc:type
           rdf:resource="http://purl.org/dc/dcmitype/StillImage" />
        <dc:title></dc:title>
      </cc:Work>
    </rdf:RDF>
  </metadata>
  <defs
     id="defs10" />
  <sodipodi:namedview
     pagecolor="#ffffff"
     bordercolor="#666666"
     borderopacity="1"
     objecttolerance="10"
     gridtolerance="10"
     guidetolerance="10"
     inkscape:pageopacity="0"
     inkscape:pageshadow="2"
     inkscape:window-width="1366"
     inkscape:window-height="747"
     id="namedview8"
     showgrid="false"
     inkscape:zoom="3.6875"
     inkscape:cx="-24.813559"
     inkscape:cy="32"
     inkscape:window-x="0"
     inkscape:window-y="21"
     inkscape:window-maximized="1"
     inkscape:current-layer="svg2" />
  <path
     style="fill:#dc322f;stroke:#777;stroke-width:0.792;fill-opacity:1"
     d="M 43.605469 24 C 43.602539 34.825195 34.825195 43.602539 24 43.602539 C 13.174805 43.602539 4.397461 34.825195 4.394531 24 C 4.394531 13.171875 13.171875 4.394531 24 4.394531 C 34.828125 4.394531 43.605469 13.171875 43.605469 24 Z "
     transform="scale(1.33333)"
     id="path4" />
  <path
     style="fill:#ffffff;fill-opacity:1"
     d="M 40.617188 16 L 32 24.617188 L 23.382812 16 L 16 23.382812 L 24.617188 32 L 16 40.617188 L 23.382812 48 L 32 39.382812 L 40.617188 48 L 48 40.617188 L 39.382812 32 L 48 23.382812 Z "
     id="path6" />
</svg>

<svg xmlns="http://www.w3.org/2000/svg" viewBox="0 0 64 64">
 <path d="m 43.605 24 c -0.003 10.825 -8.78 19.603 -19.605 19.603 c -10.825 0 -19.603 -8.777 -19.605 -19.603 c 0 -10.828 8.777 -19.605 19.605 -19.605 c 10.828 0 19.605 8.777 19.605 19.605 Z" transform="scale(1.33333)" style="fill:#dc322f;fill-opacity:1;stroke:#777;stroke-width:0.792"/>
 <path d="m 40.617 16 l -8.617 8.617 l -8.617 -8.617 l -7.383 7.383 l 8.617 8.617 l -8.617 8.617 l 7.383 7.383 l 8.617 -8.617 l 8.617 8.617 l 7.383 -7.383 l -8.617 -8.617 l 8.617 -8.617 Z" style="fill:#fff;fill-opacity:1"/>
</svg>
